!!!!SEGMENT: pl-kk--kk-i-14--008_gorczycki-grzegorz-gerwazy--alleluia-prophetae-sancti.krn
!!!cenid: 17xx:2196
!!!COM: Gorczycki, Grzegorz Gerwazy
!!!COM-rism: pe30009207
!!!CDT: ~1666-1734/04/30
!!!CNT: Polish
!!!OTL: Alleluia Prophetae sancti
!!!PDT:
!!!AGN: Sacred
!!!SMS-siglum: PL-Kk
!!!SMS-shelfmark: Kk.I.14
!!!NIFC-rismID: 1001154388
!!!URL-scan: http://repozytorium.nifc.pl/skany/pl-kk-nut--i-14
!!!ONB-nifc: UWAGA: T (skan 0006), B (0019). Następny utwór:
!!!SMS-variant:
!!!SMS-altvar:
**kern	**text	**text	**kern	**text	**text
*part2	*part2	*part2	*part1	*part1	*part1
*staff2	*staff2	*staff2	*staff1	*staff1	*staff1
*I"Baſſo.	*	*	*I"[Soprano]	*	*
*I'B	*	*	*I'[S]	*	*
*clefF4	*	*	*clefC1	*	*
*k[]	*	*	*k[]	*	*
*M2/1	*	*	*M2/1	*	*
*met(c|)	*	*	*met(c|)	*	*
=1-	=1-	=1-	=1-	=1-	=1-
1AA	Al-	.	1a	Al-	.
2D\	-le-	.	2f/	-le-	.
1F\	.	.	2d/	.	.
=2-	=2-	=2-	=2-	=2-	=2-
.	.	.	4a\	.	.
.	.	.	4g\	.	.
!LO:TX:t=P:problem:kreska pseudotaktowa	!	!	!	!	!
2D\	.	.	4f/	.	.
.	.	.	4e/	.	.
4A\	.	.	2.f/	.	.
4G\	.	.	.	.	.
4F\	.	.	.	.	.
4E\	.	.	4g\	.	.
=3-	=3-	=3-	=3-	=3-	=3-
2D/	.	.	1a	-lu-	.
1D	.	.	.	.	.
.	.	.	1g	-ia	.
2C/	.	.	.	.	.
=4-	=4-	=4-	=4-	=4-	=4-
*	*	*	*	*ij	*
0D	-lu-	.	2f/	Al-	.
.	.	.	1a	-le-	.
.	.	.	2a\	-lu-	.
=5-	=5-	=5-	=5-	=5-	=5-
!LO:TX:t=P:problem:podwójna kreska pseudotaktowa	!	!	!	!	!
1AA;;	-ja	.	1a;;	-ia	.
*	*ij	*	*	*	*
1F	Al-	.	1a	Al-	.
=6-	=6-	=6-	=6-	=6-	=6-
4E\	-le-	.	1cc	-le-	.
4D\	.	.	.	.	.
4E\	.	.	.	.	.
!LO:TX:t=P:problem:kreska pseudotaktowa	!	!	!	!	!
4C\	.	.	.	.	.
2F\	.	.	4a\	.	.
.	.	.	4g\	.	.
2D\	.	.	4a\	.	.
.	.	.	4f\	.	.
=7-	=7-	=7-	=7-	=7-	=7-
2E\	.	.	2cc\	.	.
!LO:TX:t=P:problem:kreska pseudotaktowa	!	!	!LO:N:acc=#	!	!
2G\	.	.	2bn\	.	.
1C	.	.	2.cc\	.	.
!	!	!	!LO:TX:a:t=P:problem:♭ above	!	!
!	!	!	!LO:SIC:v:t=custos a	!	!
.	.	.	4b-X\	.	.
!	!	!	!LO:PB:g=original	!	!
=8-	=8-	=8-	=8-	=8-	=8-
4D/	.	.	2.a\	.	.
!LO:SIC:v:t=custos D	!	!	!	!	!
4C/	.	.	.	.	.
!LO:LB:g=original	!	!	!	!	!
4D\	.	.	.	.	.
!LO:TX:t=P:problem:kreska pseudotaktowa	!	!	!	!	!
4E\	.	.	4g\	.	.
4F\	.	.	4f/	.	.
4E\	.	.	4g\	.	.
4F\	.	.	4a\	.	.
4G\	.	.	4f/	.	.
=9-	=9-	=9-	=9-	=9-	=9-
2A\	.	.	2cc\	.	.
1F	.	.	2a\	.	.
.	.	.	2bny\	-lu-	.
!LO:TX:t=P:problem:kreska pseudotaktowa	!	!	!	!	!
2E\	lu-	.	2g/	.	.
=10-	=10-	=10-	=10-	=10-	=10-
2F\	-ja	.	2f/	-ia	.
2.FF/	Al-	.	2.cc\	Al-	.
!	!	!	!LO:TX:t=P:problem:♭ above	!	!
4GG/	.	.	4b-X\	.	.
4AA/	.	.	4a\	-le-	.
!LO:TX:t=P:problem:kreska pseudotaktowa	!	!	!	!	!
4BB-X/	.	.	4f/	.	.
=11-	=11-	=11-	=11-	=11-	=11-
2C/	.	.	1cc	-lu-	.
1C	-le-	.	.	.	.
.	.	.	2g/	.	.
!LO:TX:t=P:problem:kreska pseudotaktowa	!	!	!	!	!
2AA/	.	.	1a\	.	.
=12-	=12-	=12-	=12-	=12-	=12-
2D\	.	.	.	.	.
1F	.	.	2f/	.	.
.	.	.	2a\	.	.
!LO:TX:t=P:problem:kreska pseudotaktowa	!	!	!LO:TX:a:t=  !LO&colon;N&colon;acc=#	!	!
2D\	.	.	2bn\	.	.
=13-	=13-	=13-	=13-	=13-	=13-
2F\	.	.	1cc	.	.
1G	.	.	.	.	.
.	.	.	2a\	.	.
!LO:TX:t=P:problem:kreska pseudotaktowa	!	!	!	!	!
2F\	-lu-	.	1dd\	.	.
=14-	=14-	=14-	=14-	=14-	=14-
1E	-ja	.	.	.	.
.	.	.	2cc#X\	.	.
2D/	Al-	.	1dd	-ia	.
1D\	-le-	.	.	.	.
=15-	=15-	=15-	=15-	=15-	=15-
.	.	.	2g/	Al-	.
2C/	.	.	1a	-le-	.
1D	-lu-	.	.	.	.
.	.	.	2a\	-lu-	.
=16-	=16-	=16-	=16-	=16-	=16-
0AAl;;	-ja	.	0al;;	-ia	.
*	*Xij	*	*	*Xij	*
!LO:LB:g=original	!	!	!LO:LB:g=original	!	!
=17||	=17||	=17||	=17||	=17||	=17||
*M2/1	*	*	*M2/1	*	*
*met(c|)	*	*	*met(c|)	*	*
1D	Pro-	Post	1a	Pro-	Post
2D/	-phe-	par-	2a\	-phe-	par-
!LO:TX:t=P:problem:kreska pseudotaktowa	!	!	!	!	!
2D/	-tae	-tu(m)	2a\	-tae	-tum
=18-	=18-	=18-	=18-	=18-	=18-
4GG/	San-	Vir-	1b-X	San-	Vir-
4AA/	.	.	.	.	.
4BB-X/	.	.	.	.	.
!LO:TX:t=P:problem:kreska pseudotaktowa	!	!	!	!	!
4C/	.	.	.	.	.
4D\	.	.	2a/	-cti	-go
4E\	.	.	.	.	.
4F\	.	.	2.f/	San-	Vir-
!LO:TX:t=P:problem:kreska pseudotaktowa	!	!	!	!	!
4E\	.	.	.	.	.
=19-	=19-	=19-	=19-	=19-	=19-
1D	.	.	.	.	.
.	.	.	4g\	.	.
.	.	.	4a\	.	.
.	.	.	4bny\	.	.
1AA	.	.	2.cc\	.	.
!	!	!	!LO:TX:a:t=P:problem:♭ above	!	!
.	.	.	4b-X\	.	.
=20-	=20-	=20-	=20-	=20-	=20-
2D/	.	.	2a\	.	.
2BB-X/	.	.	2g/	.	.
!LO:TX:t=P:problem:kreska pseudotaktowa	!	!	!	!	!
1AA	.	.	2a\	.	.
.	.	.	1cc\	.	.
=21-	=21-	=21-	=21-	=21-	=21-
2AA,</	-cti	-go	.	.	.
2E\	prae-	In-	2bn\	.	.
2C/	-di-	-vi-	1a	-cti	-go
!LO:TX:t=P:problem:kreska pseudotaktowa	!	!	!	!	!
2AA/	-ca-	-o-	.	.	.
=22-	=22-	=22-	=22-	=22-	=22-
2.C/	-ve-	-la-	1r	.	.
!LO:TX:t=P:problem:kreska pseudotaktowa	!	!	!	!	!
4D\	.	.	.	.	.
4E\	.	.	2r	.	.
4F\	.	.	.	.	.
4G\	.	.	2ee\	prae-	In-
4E\	.	.	.	.	.
=23-	=23-	=23-	=23-	=23-	=23-
2A\	.	.	2cc\	-di-	-vi-
2AA/	.	.	1a	-ca-	-o-
!LO:LB:g=original	!	!	!	!	!
4D\	.	.	.	.	.
4E\	.	.	.	.	.
4F\	.	.	1dd\	-ve-	-la-
4D\	.	.	.	.	.
=24-	=24-	=24-	=24-	=24-	=24-
2G\	.	.	.	.	.
!LO:TX:t=P:problem:kreska pseudotaktowa	!	!	!LO:SIC:v:t=custos cc	!	!
2GG/	.	.	2b\	.	.
!	!	!	!LO:LB:g=original	!	!
4C\	.	.	1cc	-runt	-ta
4D\	.	.	.	.	.
4E\	.	.	.	.	.
4C\	.	.	.	.	.
=25-	=25-	=25-	=25-	=25-	=25-
1F	.	.	2r	.	.
*	*	*	*	*ij	*ij
.	.	.	2a\	prae-	In-
!LO:TX:t=P:problem:kreska pseudotaktowa	!	!	!	!	!
1D	-runt	-ta	2f/	-di-	-vi-
.	.	.	2d/	-ca-	-o-
=26-	=26-	=26-	=26-	=26-	=26-
2r	.	.	1a	-ve-	-la-
!LO:TX:t=P:problem:kreska pseudotaktowa	!	!	!	!	!
2A\	Prae-	in-	.	.	.
2F\	-di-	-vi-	2a\	-runt	.
*	*	*	*	*Xij	*
2D\	-ca-	-o-	2dd\	na-	.
=27-	=27-	=27-	=27-	=27-	=27-
2.A\	-ve-	-la-	2.cc\	.	.
!LO:TX:t=P:problem:kreska pseudotaktowa	!	!	!LO:TX:t=P:problem:♭ above	!	!
4G\	.	.	4b-y\	.	.
2.F\	.	.	2.a\	.	.
4E\	.	.	4g\	.	.
=28-	=28-	=28-	=28-	=28-	=28-
2D,</	-runt	-ta	1f	-ſci	-ta
*	*	*	*	*	*Xij
1D	na-	per-	.	.	.
.	.	.	2r	.	.
!LO:TX:t=P:problem:kreska pseudotaktowa	!	!	!	!	!
2C/	-ſci	-man-	2cc\	Sal-	per-
=29-	=29-	=29-	=29-	=29-	=29-
2D\	Sal-	-ſi-	1a	-va-	-man-
1F	.	.	.	.	.
!	!	!	!LO:TX:t=P:problem:♭ above	!	!
.	.	.	2b-X\	.	.
2E\	-va-	.	(2g/	-to-	-ſi-
=30-	=30-	=30-	=30-	=30-	=30-
1D	-to-	.	1a)	.	.
!LO:TX:t=P:problem:kreska pseudotaktowa	!	!	!	!	!
1AA	-rem	-ſti	2a,<\	-rem	-ſti
.	.	.	2e/	de	Dei
=31-	=31-	=31-	=31-	=31-	=31-
!LO:TX:a:t=3	!	!	!	!	!
0r	.	.	2.g/	Vir-	ge-
.	.	.	4a\	.	.
.	.	.	2bn\	.	.
!	!	!	!LO:SIC:v:t=custos cc	!	!
.	.	.	2g/	.	.
!	!	!	!LO:LB:g=original	!	!
=32-	=32-	=32-	=32-	=32-	=32-
!LO:TX:t=P:problem:kreska pseudotaktowa	!	!	!	!	!
1r	.	.	2.cc\	.	.
.	.	.	4cc\	-gi-	-[ni]-
!LO:LB:g=original	!	!	!	!	!
2rBB	.	.	2cc\	-ne	-trix
1AA/	de	De-	2.a\	Ma-	ge-
=33-	=33-	=33-	=33-	=33-	=33-
.	.	.	4b\	.	.
!LO:TX:t=P:problem:kreska pseudotaktowa	!	!	!	!	!
2C/	.	-i	4a\	.	.
.	.	.	4g\	.	.
1D	Vir-	ge-	4f/	.	.
.	.	.	4d/	.	.
.	.	.	1dd\	.	.
=34-	=34-	=34-	=34-	=34-	=34-
2.E\	.	.	.	.	.
!	!	!	!LO:TX:t=P:problem:# above	!	!
.	.	.	2cc#X\	.	-ni-
4E\	-gi-	-ni-	.	.	.
!LO:TX:t=P:problem:kreska pseudotaktowa	!	!	!	!	!
1F	-ne	-trix	1dd	-tre	-trix
=35-	=35-	=35-	=35-	=35-	=35-
2E\	Ma-	Vir-	2r	.	.
1G	.	.	2dd\	San-	In-
.	.	.	2ccny\	-cta	-vi-
1F\	.	.	2a\	Ma-	-o-
=36-	=36-	=36-	=36-	=36-	=36-
.	.	.	2b-X\	-ri-	-la-
1E	.	.	2g/	-a	.
.	.	.	2a\	Ma-	.
1D\	.	.	2f/	.	.
=37-	=37-	=37-	=37-	=37-	=37-
.	.	.	2g/	-ri-	.
!LO:TX:t=P:problem:# below	!	!	!	!	!
2C#X/	.	.	2a/	.	.
!LO:TX:t=P:problem:kreska pseudotaktowa	!	!	!	!	!
1D	-tre	-go.	2d/	-a	-ta
*	*	*	*	*ij	*
.	.	.	2dd\	Ma-	ge-
=38-	=38-	=38-	=38-	=38-	=38-
!LO:TX:a:t=2	!	!	!	!	!
0r	.	.	2.cc\	-ri-	-ni-
!	!	!	!LO:TX:t=P:problem:♭ above	!	!
.	.	.	4b-X\	.	.
.	.	.	2a\	-a	-trix
*	*	*	*	*Xij	*
.	.	.	2a\	prae-	In-
!	!	!	!LO:LB:g=original	!	!
=39-	=39-	=39-	=39-	=39-	=39-
2r	.	.	2a\	-di-	-vi-
2D/	prae-	In-	2a\	-ca-	-o-
2D/	-di-	-vi-	1dd	-ve-	-la-
!LO:TX:t=P:problem:kreska pseudotaktowa	!	!	!	!	!
2D/	-ca-	-o-	.	.	.
=40-	=40-	=40-	=40-	=40-	=40-
1G	-ve-	-la-	1bny	-runt	-ta
2F\	-runt	-ta	2cc\	na-	per-
1F\	na-	per-	2cc\	-ſci	-man-
=41-	=41-	=41-	=41-	=41-	=41-
.	.	.	4f/	Sal-	-ſi-
.	.	.	4g/	.	.
!LO:TX:t=P:problem:kreska pseudotaktowa	!	!	!	!	!
2F\	-ſci	-man-	4a\	.	.
.	.	.	4b\	.	.
4Cny\	Sal-	-ſi-	2.cc\	.	.
4D\	.	.	.	.	.
4E\	.	.	.	.	.
!LO:SIC:v:t=custos D	!	!	!	!	!
4C/	.	.	4b\	.	.
!LO:LB:g=original	!	!	!	!	!
=42-	=42-	=42-	=42-	=42-	=42-
4D\	.	.	4a\	-va-	.
4E\	.	.	4e\	.	.
4F\	-va-	.	1a	-to-	.
4D\	.	.	.	.	.
1E	-to-	.	.	.	.
!	!	!	!LO:TX:t=P:problem:# above	!	!
.	.	.	2g#X/	.	.
=43-	=43-	=43-	=43-	=43-	=43-
!LO:TX:t=P:problem:kreska pseudotaktowa	!	!	!	!	!
1AA	-rem	-ſti	2a\	-rem	-ſti
*	*	*	*	*	*ij
.	.	.	1cc	Sal-	per-
0r	.	.	.	.	.
.	.	.	2cc\	-va-	-man-
=44-	=44-	=44-	=44-	=44-	=44-
.	.	.	2cc\	-to-	-ſi-
.	.	.	2b\	-rem	.
2rBB	.	.	1cc	.	.
2AA/	di	Dei	.	.	.
=45-	=45-	=45-	=45-	=45-	=45-
2.D\	Vir-	ge-	2a,\	.	-ſti
*	*	*	*	*	*Xij
.	.	.	2e/	de	Dei
!LO:TX:t=P:problem:kreska pseudotaktowa	!	!	!	!	!
4D\	-gi-	-ni-	.	.	.
2D\	-ne	-trix	2.a\	Vir-	ge-
1F\	Ma-	Vir-	.	.	.
.	.	.	4a\	-gi-	-ni-
=46-	=46-	=46-	=46-	=46-	=46-
.	.	.	1a	-ne	-trix
2D/	.	.	.	.	.
!LO:TX:t=P:problem:kreska pseudotaktowa	!	!	!	!	!
1C	.	-go	1cc	Ma-	in-
!	!	!	!LO:LB:g=original	!	!
=47-	=47-	=47-	=47-	=47-	=47-
4FF/	.	in-	2a/	-tre	-ter-
4GG/	.	.	.	.	.
4AA/	.	.	1f	San-	-ce-
4FF/	.	.	.	.	.
2.BB-X/	.	-ter-	.	.	.
.	.	.	1gny\	.	-de
!LO:TX:t=P:problem:kreska pseudotaktowa	!	!	!	!	!
4AA/	.	.	.	.	.
=48-	=48-	=48-	=48-	=48-	=48-
(4GG/	.	-ce-	.	.	.
4AA/	.	.	.	.	.
4BB-y/	.	.	2g/	-cta	pro
4C/)	.	.	.	.	.
!LO:TX:t=P:problem:kreska pseudotaktowa	!	!	!	!	!
1D	.	-de	4d/	Ma-	no-
.	.	.	4e/	.	.
.	.	.	4f/	-ri-	.
.	.	.	4g/	.	.
=49-	=49-	=49-	=49-	=49-	=49-
2D/	-tre	in-	4a\	.	.
.	.	.	4b\	.	.
1D	S(an)-	-ter-	4cc\	.	.
.	.	.	4a\	.	.
.	.	.	2dd\	.	.
2C#X/	.	-ce-	2ee\	.	.
=50-	=50-	=50-	=50-	=50-	=50-
2D\	-cta	-de	2ff\	-a	-bis
2F\	Ma-	Pro	1dd	Ma-	pro
1D	-ri-	no-	.	.	.
.	.	.	2dd\	-ri-	no-
=51-	=51-	=51-	=51-	=51-	=51-
0AAl;;	-a-	-bis-	0cc#Xl;;	-a	-bis
==	==	==	==	==	==
*-	*-	*-	*-	*-	*-
!!!system-decoration: [(s1,s2)]
!!!RDF**kern: > = above
!!!RDF**kern: < = below
!!!RDF**kern: l = terminal long
!!!ENC: Andrzej Kubiczek
!!!END: 2021-07-20
!!!ENC: Anastazja Marusiak
!!!END: 2021-06-30
